X: 7055
T: Chocolate Is Calling
R: slip jig
M: 9/8
K: Gmajor
|:GDG cBG AGF|EGF AGB AcA|GDG cBG AGF|EGF AGF G3:|
|:GBd Gce dBG|EGF AGB AcA|GBd Gce dBG|EGF AGF G3:
||gef dec BAG|AcB dce def|gef dec BAG|EGF AGF GBd|
gef dec BAG|AcB dce dBG|ceB dAc BAG|EGF AGF G3||

